resources/svg/document-image.svg

<svg xmlns="http://www.w3.org/2000/svg" viewBox="0 0 24 24" fill="currentColor"><path fill="none" stroke="currentColor" stroke-width="2" d="M4.99787498,6.99999999 L4.99787498,0.999999992 L19.4999998,0.999999992 L22.9999998,4.50000005 L23,23 L19.9999998,23 M18,1 L18,6 L23,6 M3,11 L16,11 L16,23 L3,23 L3,11 Z M7,16 C7.55228475,16 8,15.5522847 8,15 C8,14.4477153 7.55228475,14 7,14 C6.44771525,14 6,14.4477153 6,15 C6,15.5522847 6.44771525,16 7,16 Z M5,23 L7,20 L9,22 L13,16 L16,20"/></svg>

<svg viewBox="0 0 24 24"><path fill="none" stroke="currentColor" stroke-width="2" d="M4.998 7V1H19.5L23 4.5V23h-3M18 1v5h5M3 11h13v12H3V11zm4 5a1 1 0 1 0 0-2a1 1 0 0 0 0 2zm-2 7l2-3l2 2l4-6l3 4"/></svg>
